.local/share/icons/Gruvbox-Plus-Dark/emblems/24/emblem-photos.svg

<svg xmlns="http://www.w3.org/2000/svg" width="24" height="24" version="1.1" viewBox="0 0 24 24">
 <circle style="fill:#282828" cx="12" cy="12" r="10"/>
 <path style="fill:#ebdbb2" d="M 9.5 7 L 8.5 8 L 7.5 8 C 6.279084 7.986885 6 7.9999999 6 8.9277344 L 6 16 C 6 17 6.5434111 17 7.7128906 17 L 16.287109 17 C 17.629731 17.002948 18 17 18 16 L 18 9 C 18 8 17.637609 8 16.5 8 L 15.5 8 L 14.5 7 L 9.5 7 z M 12 9 C 13.6568 9 15 10.343201 15 12 C 15 13.6568 13.6568 15 12 15 C 10.3432 15 9 13.6568 9 12 C 9 10.343201 10.3432 9 12 9 z"/>
</svg>

<svg width="24" height="24" version="1.1" xmlns="http://www.w3.org/2000/svg">
  <circle cx="12" cy="12" r="10" fill="#504945"/>
  <path d="m9.5 6.9999-1 1h-1c-1.2209-0.013115-1.5-1e-7 -1.5 0.92773v7.0723c0 1 0.54341 1 1.7129 1h8.5742c1.3426 0.0029 1.7129 0 1.7129-1v-7c0-1-0.36239-1-1.5-1h-1l-1-1h-5zm2.5 2c1.6568 0 3 1.3432 3 3s-1.3432 3-3 3-3-1.3432-3-3 1.3432-3 3-3z" fill="#ebdbb2"/>
</svg>
